table-plus.svg

<svg fill="currentColor" viewBox="0 0 24 24"><path d="M18 14h2v3h3v2h-3v3h-2v-3h-3v-2h3zM4 3h14a2 2 0 0 1 2 2v7.08a6 6 0 0 0-4.32.92H12v4h1.08c-.11.68-.11 1.35 0 2H4a2 2 0 0 1-2-2V5a2 2 0 0 1 2-2m0 4v4h6V7zm8 0v4h6V7zm-8 6v4h6v-4z"/></svg>

<svg  viewBox="0 0 24 24" fill="currentColor"><path  d="M18,14H20V17H23V19H20V22H18V19H15V17H18V14M4,3H18A2,2 0 0,1 20,5V12.08C18.45,11.82 16.92,12.18 15.68,13H12V17H13.08C12.97,17.68 12.97,18.35 13.08,19H4A2,2 0 0,1 2,17V5A2,2 0 0,1 4,3M4,7V11H10V7H4M12,7V11H18V7H12M4,13V17H10V13H4Z"/></svg>
